X:1
T:Där borta
T:Elfrida Andrée (1841-1923)
T:Text: Viktor Rydberg
T:ur Drömliv III
T:©PA Aglert Edition may be freely distributed, duplicated, performed and recorded
T:©PA Aglert Edition may be freely distributed, duplicated, performed and recorded
T:©PA Aglert Edition may be freely distributed, duplicated, performed and recorded
T:©PA Aglert Edition may be freely distributed, duplicated, performed and recorded
C:Ludvig Norman (1831-1885)
Z:©PA Aglert
Z:Edition may be freely distributed, duplicated, performed and recorded
%%score [ 1 2 3 4 ]
L:1/8
Q:1/4=89
M:4/4
K:Eb
V:1 treble nm="S"
V:2 treble nm="A"
V:3 treble-8 nm="T"
V:4 bass nm="B"
V:1
"^Långsamt" z2 | z4 z2 GG | (A^F)Gc c2 =Bd | !>!d2 GA G2!<(! GG!<)! | e2 cA GF z F | B2 BA G2 GG | %6
w: |Ty de|vis- * ka, att stri- dens och|smär- tans mys- tär är full-|kom- nin- gens vill- kor och|sjä- lar- nas rätt, att det|
 c2 cc c!>(!GG!>)!G | c2 dc e2 GG | A4 G2 z G |!>(! d4!>)! c2 z c |"^rit." e4 c2 A2 | %11
w: drag u- tav ve- * mod som|ska- pel- sen bär, är av|trå- nad att|skå- da en|äd- la- re|
!>(! !breath!G6!>)!"^a tempo" GG | (A!<(!^F)Gc!<)! c2 =Bd | %13
w: ätt. Ja, den|sam- * klang du nju- ter är|
!>(! !>!d2 GA!>)! !breath!G2!<(! GG!<)! | e2 cB !>!BA z A | B2 BA !courtesy!=G2 GG | c2 cc (cG)GG | %17
w: läng- tan u- ti, ty na-|tu- ren hon bi- dar, att|män- skan en gång skall för-|vand- la dess dröm- * man- de|
!<(! c2 d>!<)!c G2 G^G |[K:C]!<(! !courtesy!=A2 B^c e!<)!d z d |!f! f4 !courtesy!=A2 d2 | %20
w: livs har- mo- ni till en|va- ken en fri- gjord en|Jub- lan- de|
 c4 z2 (FE) |!<(! D4!<)! !breath!F2!<(! (A!<)!c) | c4 c2 c2 |!f! !fermata!e8 |] %24
w: sång, en _|fri- gjord, en _|jub- lan- de|sång.|
V:2
!pp! EE | E8 | E4 F4 | (F3 D) E2 E2 | E4 E2 E2 | D8 | D4 E4 | D4 E2 E2 | D4 E2 E2 | %9
w: Ty de|vis-|ka, att|stri- * dens och|smär- tans mys-|tär|är full-|kom- nin- gens|vill- kor och|
"^cresc." (F6 E2) | D4 E4 |!>(! !breath!E6!>)!!p! FF | E4 F2 F2 | (F3 D) !breath!E2 E2 | C4 C2 C2 | %15
w: sjä- *|lar- nas|rätt, ty na-|tu- ren hon|bi- * dar, att|män- skan en|
 C4 E2 E2 | (C2 D2) E2 E2 |!<(! D4!<)! =E2 E2 |[K:C]!<(! F2 GG (A2!<)! !breath!A)A |!f! A4 F2 F2 | %20
w: gång skall för-|vand- * la dess|dröm- man- de|livs har- mo- ni _ en|Jub- lan- de|
 F4 z2 C2 |!<(! C4!<)! !breath!D2 [DF]2 | [CF]4 [DF]2 [CF]2 |!f! !fermata![CE]8 |] %24
w: sång, en|fri- gjord, en|jub- lan- de|sång.|
V:3
!pp! GG | G8 | c4 A4 | (G3 F) E2 c2 | c4 c2 c2 | (c4 =B4) | A4 G4 | A4 G2 c2 | =B4 c2 c2 | %9
w: Ty de|vis-|ka, att|stri- * dens och|smär- tans mys-|tär _|är full-|kom- nin- gens|vill- kor och|
"^cresc." c8 | =B4 c4 |!>(! (!breath!c4!>)! =B2)!p! BB | c4 A2 A2 | (G3 F) !breath!E2 G2 | %14
w: sjä-|lar- nas|rätt, _ ty na-|tu- ren hon|bi- * dar, att|
 ^F4 F2 F2 | ^F4 G2 G2 | A4 G2 G2 |!<(! A4!<)! c2 c2 |[K:C]!<(! c2 GA (^cd-!<)!!breath!d)d | %19
w: män- skan en|gång skall för-|vand- la dess|dröm- man- de|livs har- mo- ni _ _ en|
!f! d4 c2 !courtesy!=B2 | c4 z2 !courtesy!=A2 |!<(! A4!<)! !breath!A2 [Ac]2 | [Fc]4 A2 [FA]2 | %23
w: Jub- lan- de|sång, en|fri- gjord, en|jub- lan- de|
!f! !fermata![Gc]8 |] %24
w: sång.|
V:4
!pp! C,C, | C,8 | C,4 C,4 | =B,,4 C,2 (CB,) | A,4 A,2 A,2 | (F,4 G,4) | F,4 C,4 | F,4 C,2 E,2 | %8
w: Ty de|vis-|ka, att|stri- dens och _|smär- tans mys-|tär _|är full-|kom- nin- gens|
 E,4 E,2 E,2 |"^cresc." (A,6 G,2) | G,4 (A,2 F,2) |!>(! !breath!E,6!>)!!p! D,D, | C,4 C,2 C,2 | %13
w: vill- kor och|sjä- *|lar- nas _|rätt, ty na-|tu- ren hon|
 =B,,4 !breath!C,2 C,2 | A,,4 A,,2 A,,2 | A,,4 B,,2 C,2 | F,4 C,2 C,2 |!<(! F,4!<)! C,2 C,2 | %18
w: bi- dar, att|män- skan en|gång skall för-|vand- la dess|dröm- man- de|
[K:C]!<(! F,2 !courtesy!=E,G, F,2-!<)! !breath!F,F, |!f! D,4 D2 G,2 | A,4 z2 (A,G,) | %21
w: livs har- mo- ni _ en|Jub- lan- de|sång, en _|
!<(! F,4!<)! !breath!F,2 F,2 | C,4 C,2 C,2 |!f! !fermata!C,8 |] %24
w: fri- gjord, en|jub- lan- de|sång.|

